!!!COM: Bach, Johann Sebastian
!!!CDT: 1685/3//-1750/7/28/
!!!OTL@@DE: O Mensch, bewein' dein' Suende gross
!!!AGN: 4-Part Chorale
!!!SCT: BH 306
!!!SCT: BWV 402
**harm	**root	**kern	**kern	**kern	**kern
!	!	!bass	!tenor	!alto	!soprno
*	*Iorgan	*Iorgan	*Iorgan	*Iorgan	*Iorgan
*M4/4	*M4/4	*M4/4	*M4/4	*M4/4	*M4/4
*met(c)	*met(c)	*met(c)	*met(c)	*met(c)	*met(c)
*MM60	*MM60	*MM60	*MM60	*MM60	*MM60
*k[f#c#]	*k[f#c#]	*k[f#c#]	*k[f#c#]	*k[f#c#]	*k[f#c#]
*D:	*D:	*D:	*D:	*D:	*D:
*>[A,A,B]	*>[A,A,B]	*>[A,A,B]	*>[A,A,B]	*>[A,A,B]	*>[A,A,B]
*>A	*>A	*>A	*>A	*>A	*>A
I	4EE-	4D	4F#	4A	4d
=1	=1	=1	=1	=1	=1
IV	4AA-	8G	4G	4.B	4d
.	.	8F#	.	.	.
ii	4FF	4E	4G	.	4e
.	.	.	.	16A#	.
.	.	.	.	16B	.
Vb/vi	4GG	4AA#	4F#	4.c#	8f#
.	.	.	.	.	8e
vi	4CC	[4BB	4F#	.	4d
.	.	.	.	16B	.
.	.	.	.	16c#	.
=2	=2	=2	=2	=2	=2
vi	4CC	4BB]	8B	4.d	4f#
.	.	.	8A	.	.
viioD7/iii	4FF#	4EE#	4G#	.	4g#
.	.	.	.	8c#	.
iii;	4GG;	4FF#;	4F#;	4c#;	4a;
iii	4GG	4F#	4c#	[4f#	4a
=3	=3	=3	=3	=3	=3
IVb	8AA-	8BB	8d	8f#]	4gy
V7b	8BB-	8C#	8A	4e	.
I	4EE-	4D	4A	.	4f#
.	.	.	.	4d	.
V7b/V	8FF	8GG#	8B	.	4e
V7b/vi	8GG	8AA#	8F#	8c#	.
vi	4CC	[4BB	4F#	8B	8d
.	.	.	.	8c#	8e
=4	=4	=4	=4	=4	=4
vi	4CC	4BB]	8B	4d	4f#
.	.	.	8A	.	.
V7/V	4FF	4EE	4B	4d	4g#
V;	4BB-;	4AA;	4A;	4c#;	4a;
ii	4FF	8E	[4Gy	[4e	4b
.	.	8D	.	.	.
=5	=5	=5	=5	=5	=5
V7b	8BB-	8C#	8G]	8e]	4a
Ic	8EE-	8AA	4F#	16d	.
.	.	.	.	16c#	.
IVb	8AA-	8BB	.	8d	4g
V7b	8BB-	8C#	8E	8A	.
I	4EE-	8D	4.D	8A	4f#
.	.	8C#	.	16d	.
.	.	.	.	16c#	.
IVb	4AA-	8BB	.	[4d	4g
.	.	8AA	8A	.	.
!!linebreak: 3
=6	=6	=6	=6	=6	=6
ii7b	8FF	8GG	8B	8d]	2e
viib	8DD	8EE	8G	16c#	.
.	.	.	.	16B	.
V	4BB-	4AA	8E	4c#	.
.	.	.	8A	.	.
I;	4EE-;	4DD;	4F#;	4A;	4d;
=:|!	=:|!	=:|!	=:|!	=:|!	=:|!
*>B	*>B	*>B	*>B	*>B	*>B
I	8EE-	8DD	8F#	8a	4dd
ii7	8FF	8EE	8G	8g	.
=7	=7	=7	=7	=7	=7
Ib	4EE-	4FF#	4A	4f#	4dd
V7b/V	4FF	4GG#	[4B	4e	4dd
V	4BB-	8AA	8B]	4e	4cc#
.	.	8BB	16A	.	.
.	.	.	16Gy	.	.
V7d/IV	4EE-	4C	4F#	4d	4a
=8	=8	=8	=8	=8	=8
IVb	4AA-	8BB	4G	8d	4b
.	.	8AA	.	8c	.
IV	4AA-	4GG	4G	4d	4b
I;	4EE-;	4D;	4A;	4d;	4f#;
vi	4CC	8BB	4B	4f#	4dd
.	.	8AA	.	.	.
=9	=9	=9	=9	=9	=9
V7b/V	4FF	8GG#	8B	4e	4dd
.	.	8FF#	8A	.	.
V7/V	4FF	4EE	4G#	4e	4dd
V	4BB-	8AA	8A	4e	4cc#
.	.	8BB	8G#	.	.
Vb	4BB-	4C#	[4A	4e	4a
=10	=10	=10	=10	=10	=10
V7/II	4CC	4BB	8A]	4f#	4b
.	.	.	16G#	.	.
.	.	.	16F#	.	.
II	4FF	4E	4G#	8e	4b
.	.	.	.	8d	.
V;	4BB-;	4AA;	4A;	4c#;	4a;
I	4EE-	[4D	4A	8d	8f#
.	.	.	.	8e	8g
=11	=11	=11	=11	=11	=11
I	4EE-	8D]	4d	4f#	4a
.	.	8C	.	.	.
IVb	4AA-	8BB	4d	4g	4b
.	.	8C#	.	.	.
V/IV	4EE-	4D	8d	4f#	4a
.	.	.	4c	.	.
Vb/ii	4CC	4D#	.	[4f#	4f#
.	.	.	8B	.	.
!!linebreak: 3
=12	=12	=12	=12	=12	=12
ii	4FF	4E	4B	8f#]	2g
.	.	.	.	16e	.
.	.	.	.	16d	.
viiD7/vi	4BB	4AA#	8c#	8e	.
.	.	.	8e	8c#	.
vi;	4CC;	4BB;	4B;	4d;	4f#;
IV/IV	4DD-	[4C	4G	4e	4e
=13	=13	=13	=13	=13	=13
V7d/IV	4EE-	4C]	4A	4d	4f#
IV	4AA-	4BB	4B	4d	4g
V	4BB-	8AA	4c#	4e	4a
.	.	8GG	.	.	.
iii	4GG	4FF#	8C#	4f#	4a
.	.	.	8D#	.	.
=14	=14	=14	=14	=14	=14
ii	4FF	4EE	4E	8B	4g
.	.	.	.	8c#	.
Ib	4EE-	8FF#	4A	[4d	4f#
.	.	8GG	.	.	.
V;	4BB-;	4AA;	4A;	8d]	4e;
.	.	.	.	8c#;	.
V	4BB-	4A	4c#	4e	4a
=15	=15	=15	=15	=15	=15
Vb/V	4FF	4G#	4B	4e	4b
V7c	4BB-	4G	[4A	4e	4cc#
Ib	4EE-	4.F#	8A]	8f#	4dd
.	.	.	8B	8g#	.
iii	4GG	.	4c#	[4a	4cc#
.	.	8E	.	.	.
=16	=16	=16	=16	=16	=16
V7b/ii	4CC	4D#	4F#	4a]	4b
V7b/iii	4DD	4E#	4c#	4g#	4b
iii;	4GG;	4F#;	4c#;	4f#;	4a;
IV	4AA-	[4Gy	4B	4d	4d
=17	=17	=17	=17	=17	=17
V7d	4BB-	8G]	4A	4c#	4e
.	.	8F#	.	.	.
I	4EE-	8E	4.A	4d	4f#
.	.	8D	.	.	.
V7b	8BB-	8C#	.	8e	4g
V7	8BB-	8AA	8E	8c#	.
I	8EE-	8D	8F#	8A	4f#
Ib	8EE-	8FF#	8A	[8d	.
=18	=18	=18	=18	=18	=18
ii7b	8FF	4GG	8B	8d]	2e
viib	8DD	.	8G	16c#	.
.	.	.	.	16B	.
V	4BB-	4AA	8E	4c#	.
.	.	.	16A	.	.
.	.	.	16G	.	.
I;	4EE-;	4DD;	4F#;	4A;	4d;
==	==	==	==	==	==
*-	*-	*-	*-	*-	*-
!!chor2scor: -l 3 -s 0.6 -o %b.pmx
!!!YEC: Copyright 1994, David Huron
!!!YEC: Changes/Additions 2001 by Craig Stuart Sapp
!!!YEN: United States of America
!!!SMA: 371 Bach Chorales, edited by Ludwig Erk, C.F. Peters
!!!PDT: 1850, 1865
!!!ONB: Harmony and Root analysis done manually
